!!!SOCIAL_FUNCTION:	cochiti
!!!PDT:	1957
!!!OTL: No_59_Song_on_Evening_Before_the_Buffalo_Dance.krn
!!!LING_GROUP: Keresan
!!!LANG: Tone
!!!REG: Southwest
**kern
*staff1
=1-
*clefF4
*k[f#c#g#d#a#]
*M2/4
4r
4F#\
=2!|:
2d#\
=3
*M3/4
4d#\
4c#\
4B\
=4
*M2/4
2d#\
=5
*M3/4
4d#\
4c#\
4B\
=6
(2B\
4F#\)
=7
*M2/4
4F#\
4r
=8
8F#\L
[8F#\J
4F#\]
=9
4F#\
4F#\
=10
[2F#\
=11
2F#\]
=12
*M3/4
4F#\
4r
4F#\
=13:|!
*M2/4
4F#\
4r
=14!|:
8B\L
8F#\J
4F#\
=15
*M3/4
4F#\
4r
8B\L
8F#\J
=16
2B\
4F#\
=17
8F#\L
8D#\J
4C#/
4E\
=18
2F#\
4C#/
=19
4BB/
4r
4D#\
=20
2D#\
4C#/
=21
2BB/
8D#/L
8C#/J
=22
4BB/
4FF#/
4FF#/
=23
*M5/4
[2FF#/
2FF#/]
4r
==:|!
*-
